X: 9494
T: Dark Horse, The
R: slip jig
M: 9/8
K: Eminor
|:EFG B2c ~B3|EFG BcA BGE|DEF A2B ~A3|DEF AFB AFD:|
EGB e2f ~e3|EGB efd edB|DFA d2e ~d3|DFA de^c dAF|
EGB e2f ~e3|EGB efd edB|DFA d2e d2e|fed B/c/dA BAF||
|:GFE e2B ~G2B|EGB eBG EFG|FED d2A ~F2A|DFA dAF DEF:|

